svg/secure_data.svg

<svg id="Layer_1" data-name="Layer 1" xmlns="http://www.w3.org/2000/svg" width="24" height="24" viewBox="0 0 24 24">
  <path d="M14.26862,15.01038A4.28181,4.28181,0,0,1,15.04993,13.01H11.02167v-2h7.994v.001a4.90339,4.90339,0,0,1,1.99871.43939V3.01337A2.00146,2.00146,0,0,0,19.01294,1.0119H3.01587A2.00151,2.00151,0,0,0,1.0144,3.01337V17.01044A2.00147,2.00147,0,0,0,3.01587,19.0119H13.0127v-.801a3.01328,3.01328,0,0,1,.26831-1.20056H7.01337v-2Zm4.74414-6.0008H11.01868v-2h7.99408ZM7.01337,3.01062H19.01276v2H7.01337ZM5.002,17.01038h-2v-2h2Zm0-11.99976h-2v-2h2Zm2.00538,1.999h2v2h-2Zm.003,6.00043v-2h2v2Zm14.80236,4.001v-1.5a2.818,2.818,0,0,0-5.6,0v1.5a1.29042,1.29042,0,0,0-1.2,1.2v3.5a1.30931,1.30931,0,0,0,1.2,1.3h5.5a1.30939,1.30939,0,0,0,1.3-1.2v-3.5A1.30937,1.30937,0,0,0,21.81274,17.01105Zm-1.3,0h-3v-1.5a1.37461,1.37461,0,0,1,1.5-1.3,1.37465,1.37465,0,0,1,1.5,1.3Z"/>
</svg>

<svg id="Layer_1" data-name="Layer 1" xmlns="http://www.w3.org/2000/svg" viewBox="0 0 24 24"><title>secure_data</title><path d="M14.27,15a4.25,4.25,0,0,1,.78-2H11V11h8a4.91,4.91,0,0,1,2,.44V3a2,2,0,0,0-2-2H3A2,2,0,0,0,1,3V17a2,2,0,0,0,2,2H13v-.8a3.09,3.09,0,0,1,.27-1.2H7V15ZM19,9H11V7h8ZM7,3H19V5H7ZM5,17H3V15H5ZM5,5H3V3H5ZM7,7H9V9H7Zm0,6V11H9v2Zm14.8,4v-1.5a2.82,2.82,0,0,0-5.6,0V17a1.29,1.29,0,0,0-1.2,1.2v3.5a1.31,1.31,0,0,0,1.2,1.3h5.5a1.31,1.31,0,0,0,1.3-1.2v-3.5A1.31,1.31,0,0,0,21.81,17Zm-1.3,0h-3v-1.5a1.37,1.37,0,0,1,1.5-1.3,1.37,1.37,0,0,1,1.5,1.3Z"/></svg>
